lib/preview/nrk-logo-preview-nrk-tv.svg

<svg width="60" height="14" viewBox="0 0 60 14" fill="none" xmlns="http://www.w3.org/2000/svg">
<path d="M6.10352e-05 12.9978V0.998893H3.93725V12.9978H6.10352e-05ZM9.29387 2.90858L11.5581 12.9978H7.24923L4.54555 0.998893H6.96224C7.51641 0.991701 8.05412 1.18705 8.47456 1.54819C8.89568 1.89418 9.18501 2.3745 9.29387 2.90858ZM12.1496 12.9978V0.998893H16.0868V12.9978H12.1496ZM19.0605 5.5619C18.6363 5.56604 18.2188 5.45503 17.8526 5.24077C17.4913 5.03192 17.1912 4.73176 16.9823 4.3704C16.7678 4.00413 16.6568 3.58656 16.661 3.16212C16.6562 2.74026 16.7673 2.32518 16.9823 1.96223C17.1934 1.60479 17.4932 1.3079 17.8526 1.10032C18.2189 0.886305 18.6363 0.775317 19.0605 0.779187C19.4823 0.774645 19.8972 0.885732 20.2603 1.10032C20.6161 1.30972 20.9127 1.60636 21.1221 1.96223C21.3369 2.32528 21.448 2.7403 21.4434 3.16212C21.4473 3.58653 21.3363 4.00403 21.1221 4.3704C20.9149 4.73018 20.618 5.03008 20.2603 5.24077C19.8972 5.45578 19.4819 5.56689 19.06 5.5619H19.0605ZM22.0517 12.9978V0.998893H25.9892V12.9978H22.0517ZM30.9738 7.55604C30.9849 7.56768 31.0693 7.70569 31.2272 7.97007C31.3851 8.23446 31.5907 8.57249 31.844 8.98409C32.0975 9.39551 32.3649 9.83206 32.6464 10.2938C32.9278 10.7555 33.1927 11.1922 33.4409 11.6036C33.6882 12.015 33.9698 12.4797 34.2858 12.9978H29.9599C29.6893 12.5584 29.4442 12.1613 29.2245 11.8064C29.0049 11.4515 28.7714 11.0684 28.5239 10.6572C28.2759 10.2463 28.0307 9.84634 27.7883 9.45727C27.5459 9.0682 27.3376 8.72742 27.1633 8.43486C26.9883 8.14212 26.8671 7.94493 26.7997 7.84334C26.6326 7.59125 26.5337 7.3001 26.5127 6.99835C26.5295 6.70874 26.6227 6.42878 26.7828 6.18691C26.8504 6.07425 26.9743 5.87423 27.1546 5.58693C27.3348 5.29964 27.5461 4.95886 27.7883 4.56453C28.0305 4.1702 28.2757 3.76741 28.5239 3.35618C28.7721 2.94495 29.0056 2.55904 29.2245 2.19851C29.4446 1.83835 29.6897 1.43839 29.9599 0.998618H34.2858L30.9397 6.4573C30.8361 6.61937 30.7778 6.80615 30.7707 6.99835C30.7818 7.20013 30.8523 7.39412 30.9732 7.55604H30.9738Z" fill="white"/>
<path d="M38.8572 2.50263H42.7534V12.9794H44.5399V2.50263H48.4191V1.02039H38.8572V2.50263Z" fill="white"/>
<path d="M57.8109 1.02039L55.2758 8.46528C55.1504 8.84707 55.0227 9.25131 54.8927 9.67802C54.7626 10.1047 54.6379 10.5314 54.5186 10.9581C54.4568 11.1784 54.3976 11.391 54.3408 11.596C54.2813 11.3795 54.2186 11.1566 54.1528 10.9244C54.0275 10.4865 53.8998 10.0514 53.7697 9.61907C53.6397 9.18675 53.5064 8.77969 53.3699 8.3979L50.8859 1.02039H48.9803L53.1657 12.9794H55.3776L59.58 1.02039H57.8109Z" fill="white"/>
</svg>

<svg xmlns="http://www.w3.org/2000/svg" viewBox="0 0 60 14"><path fill="#fff" d="M0 12.998v-12h3.937v12H0Zm9.294-10.09 2.264 10.09H7.25l-2.703-12h2.416a2.276 2.276 0 0 1 1.513.55c.42.346.71.826.819 1.36Zm2.856 10.09v-12h3.937v12H12.15Zm6.91-7.436a2.383 2.383 0 0 1-2.4-2.4 2.303 2.303 0 0 1 .322-1.2A2.412 2.412 0 0 1 20.26 1.1c.356.21.653.506.862.862.215.363.326.778.321 1.2a2.4 2.4 0 0 1-1.183 2.079 2.303 2.303 0 0 1-1.2.32Zm2.992 7.436v-12h3.937v12h-3.937Zm8.922-5.442a9.3 9.3 0 0 1 .253.414c.158.264.364.602.617 1.014a325.765 325.765 0 0 1 1.597 2.62c.247.411.529.876.845 1.394H29.96c-.27-.44-.516-.837-.736-1.192-.22-.354-.453-.738-.7-1.149-.248-.41-.493-.81-.736-1.2-.242-.389-.45-.73-.625-1.022-.175-.293-.296-.49-.363-.592a1.75 1.75 0 0 1-.287-.845c.016-.29.11-.57.27-.811.067-.113.191-.313.372-.6a182.106 182.106 0 0 0 1.37-2.23c.247-.412.48-.798.7-1.158l.735-1.2h4.326L30.94 6.457a1.078 1.078 0 0 0-.17.541c.012.202.082.396.203.558ZM38.857 2.503h3.896v10.476h1.787V2.503h3.88V1.02h-9.563v1.483ZM57.81 1.02l-2.534 7.445a58.922 58.922 0 0 0-.757 2.493l-.178.638a88.345 88.345 0 0 0-.571-1.977c-.13-.432-.264-.84-.4-1.221L50.886 1.02H48.98l4.186 11.96h2.212L59.58 1.02h-1.77Z"/></svg>
